X: 1
T: The Merry Dancers
T: 8x32J 3C (RSCDS Bk 4)
P: The Merry Dancers
C: Bremner's Scots Reels/RSCDS, arr. T. Traub 4-7-96
R: Jig
M: 6/8
K: G
L: 1/8
|: c|"G7"BAB "C"cGE|"G"GAG "C"G2 c|"G"BAB "C"cGE|"D7"DED D2 c|"G"BAB "C"cGE|"G"GAG "C"c2 e|"G"dcB "Am"c2 B|"D"AFD D2 :|
c|"G"B/c/dB GAG|"G"B/c/dB G2 c|"G"B/c/dB "A7"GAG|"D"F/G/AF "D"D2 c|"G"B/c/dB GAG|"G"B/c/dB "C"c2 e|"G"dcB "Am"c2 B |"D"AFD D2 g||
"D"fef "G"gdB |"G"gdB G2 g|"D"fef "G"gdB|"D"AFD D2 g|"D"fef "G"gdB|"D"def "G"gdB|"Am"cac "G"BgB|"D"AFD "G"G2 |]
